2 Export/Icons/Rounded/Help.svg

<svg xmlns="http://www.w3.org/2000/svg" xmlns:xlink="http://www.w3.org/1999/xlink" width="24" height="24" viewBox="0 0 24 24">
  <defs>
    <path id="help-a" d="M12,2 C17.52,2 22,6.48 22,12 C22,17.52 17.52,22 12,22 C6.48,22 2,17.52 2,12 C2,6.48 6.48,2 12,2 Z M11.9945455,18.9927273 C12.5458261,18.9927273 12.9927273,18.5458261 12.9927273,17.9945455 C12.9927273,17.4432649 12.5458261,16.9963636 11.9945455,16.9963636 C11.4432649,16.9963636 10.9963636,17.4432649 10.9963636,17.9945455 C10.9963636,18.5458261 11.4432649,18.9927273 11.9945455,18.9927273 Z M15.07,11.25 C16.09,10.23 16.44,8.48 15.26,6.85 C14.36,5.6 12.91,4.81 11.39,5.05 C9.84,5.29 8.59,6.41 8.16,7.88 C8,8.44 8.4,9 8.98,9 L9.28,9 C9.67,9 9.98,8.72 10.1,8.35 C10.43,7.4 11.46,6.77 12.57,7.08 C13.27,7.28 13.83,7.89 13.96,8.61 C14.09,9.31 13.87,9.97 13.41,10.41 L12.17,11.67 C11.75,12.09 11.42,12.61 11.22,13.19 C11.08,13.6 11,14.04 11,14.5 L11,15 L13,15 C13,14.54 13.05,14.18 13.13,13.86 C13.31,13.14 13.67,12.68 14.17,12.17 L15.07,11.25 Z"/>
  </defs>
  <g fill="none" fill-rule="evenodd">
    <polygon points="0 0 24 0 24 24 0 24"/>
    <mask id="help-b" fill="#fff">
      <use xlink:href="#help-a"/>
    </mask>
    <use fill="#000" xlink:href="#help-a"/>
    <g fill="#000" mask="url(#help-b)">
      <rect width="24" height="24"/>
    </g>
  </g>
</svg>

<svg xmlns="http://www.w3.org/2000/svg" xmlns:xlink="http://www.w3.org/1999/xlink" width="24" height="24" viewBox="0 0 24 24">
  <defs>
    <path id="help-a" d="M12 2c5.52 0 10 4.48 10 10s-4.48 10-10 10S2 17.52 2 12 6.48 2 12 2zm-.005 16.993a.998.998 0 1 0 0-1.997.998.998 0 0 0 0 1.997zm3.075-7.743c1.02-1.02 1.37-2.77.19-4.4-.9-1.25-2.35-2.04-3.87-1.8-1.55.24-2.8 1.36-3.23 2.83C8 8.44 8.4 9 8.98 9h.3c.39 0 .7-.28.82-.65.33-.95 1.36-1.58 2.47-1.27.7.2 1.26.81 1.39 1.53.13.7-.09 1.36-.55 1.8l-1.24 1.26A3.997 3.997 0 0 0 11 14.5v.5h2c0-.46.05-.82.13-1.14.18-.72.54-1.18 1.04-1.69l.9-.92z"/>
  </defs>
  <g fill="none" fill-rule="evenodd">
    <polygon points="0 0 24 0 24 24 0 24"/>
    <mask id="help-b" fill="#fff">
      <use xlink:href="#help-a"/>
    </mask>
    <use fill="#000" xlink:href="#help-a"/>
    <g fill="#000" mask="url(#help-b)">
      <rect width="24" height="24"/>
    </g>
  </g>
</svg>
